src/icons/svg/organization-set.svg

<svg width="128px" height="122px" viewBox="0 0 128 122" version="1.1" xmlns="http://www.w3.org/2000/svg"
>
    <g id="页面-1" stroke="none" stroke-width="1" fill="none" fill-rule="evenodd">
        <g id="编组" fill="#2C2C2C" fill-rule="nonzero">
            <path d="M19.8,66.9375 L58.2,66.9375 L58.2,78.75 L67.8,78.75 L67.8,66.9375 L106.2,66.9375 L106.2,78.75 L115.8,78.75 L115.8,64.5774609 C115.8,59.3676562 112.356,55.125 108.118,55.125 L67.8,55.125 L67.8,39.375 L75.8,39.375 C79.334,39.375 82.2,35.8484766 82.2,31.5 L82.2,7.875 C82.2,3.52652344 79.334,0 75.8,0 L50.2,0 C46.666,0 43.8,3.52652344 43.8,7.875 L43.8,31.5 C43.8,33.6754688 44.516,35.6442188 45.674,37.0691016 C46.832,38.4939844 48.432,39.375 50.2,39.375 L58.2,39.375 L58.2,55.125 L17.882,55.125 C13.644,55.125 10.2,59.3651953 10.2,64.5774609 L10.2,78.75 L19.8,78.75 L19.8,66.9375 Z M53.4,27.5625 L53.4,11.8125 L72.6,11.8125 L72.6,27.5625 L53.4,27.5625 Z M121.6,82.625 L102.4,82.625 C98.866,82.625 96,86.1515234 96,90.5 L96,114.125 C96,118.473477 98.866,122 102.4,122 L121.6,122 C125.134,122 128,118.473477 128,114.125 L128,90.5 C128,86.1515234 125.134,82.625 121.6,82.625 Z M118.4,110.1875 L105.6,110.1875 L105.6,94.4375 L118.4,94.4375 L118.4,110.1875 Z M73.6,82.625 L54.4,82.625 C50.866,82.625 48,86.1515234 48,90.5 L48,114.125 C48,118.473477 50.866,122 54.4,122 L73.6,122 C77.134,122 80,118.473477 80,114.125 L80,90.5 C80,86.1515234 77.134,82.625 73.6,82.625 Z M70.4,110.1875 L57.6,110.1875 L57.6,94.4375 L70.4,94.4375 L70.4,110.1875 Z M25.6,82.625 L6.4,82.625 C2.866,82.625 0,86.1515234 0,90.5 L0,114.125 C0,118.473477 2.866,122 6.4,122 L25.6,122 C29.134,122 32,118.473477 32,114.125 L32,90.5 C32,86.1515234 29.134,82.625 25.6,82.625 Z M22.4,110.1875 L9.6,110.1875 L9.6,94.4375 L22.4,94.4375 L22.4,110.1875 Z"
                  id="形状"></path>
        </g>
    </g>
</svg>

<svg width="128" height="122" xmlns="http://www.w3.org/2000/svg"><path d="M19.8 66.938h38.4V78.75h9.6V66.937h38.4V78.75h9.6V64.577c0-5.21-3.444-9.452-7.682-9.452H67.8v-15.75h8c3.534 0 6.4-3.527 6.4-7.875V7.875C82.2 3.527 79.334 0 75.8 0H50.2c-3.534 0-6.4 3.527-6.4 7.875V31.5c0 2.175.716 4.144 1.874 5.57 1.158 1.424 2.758 2.305 4.526 2.305h8v15.75H17.882c-4.238 0-7.682 4.24-7.682 9.452V78.75h9.6V66.937zm33.6-39.376v-15.75h19.2v15.75H53.4zm68.2 55.063h-19.2c-3.534 0-6.4 3.527-6.4 7.875v23.625c0 4.348 2.866 7.875 6.4 7.875h19.2c3.534 0 6.4-3.527 6.4-7.875V90.5c0-4.348-2.866-7.875-6.4-7.875zm-3.2 27.563h-12.8v-15.75h12.8v15.75zM73.6 82.624H54.4c-3.534 0-6.4 3.527-6.4 7.875v23.625c0 4.348 2.866 7.875 6.4 7.875h19.2c3.534 0 6.4-3.527 6.4-7.875V90.5c0-4.348-2.866-7.875-6.4-7.875zm-3.2 27.563H57.6v-15.75h12.8v15.75zM25.6 82.624H6.4c-3.534 0-6.4 3.527-6.4 7.875v23.625C0 118.473 2.866 122 6.4 122h19.2c3.534 0 6.4-3.527 6.4-7.875V90.5c0-4.348-2.866-7.875-6.4-7.875zm-3.2 27.563H9.6v-15.75h12.8v15.75z" fill="currentColor" fill-rule="nonzero"/></svg>
